X:1
T:Title
%%score { ( 1 3 ) | ( 2 4 ) }
L:1/8
M:3/8
K:Bb
V:1 treble nm="Grand Piano"
V:3 treble 
V:2 bass 
V:4 bass 
V:1
 z z[Q:1/4=60] [GB] | [Ge][Gd][^Fc] | [GB][EG][=Ec] | _AF[DB] | GEG | _AG^F | GB=B | cce | d2 d | %9
 [Ge][Gd][^Fc] | [GB][EG][=Ec] | _AF[DB] | GEG | z z _A |[M:7/16] ce3/2c |[M:3/8] BG[DF] | %16
[M:1/4] E2 |[M:1/8] [DF] |[M:3/8] [DB][DB][DB] | [Fd]2 [FB] | ddc | [DB]2 F | BB/c/d/e/ | fdB | %24
 ddc | B2 [GB] | [Ge][Gd][^Fc] | [GB][EG][=Ec] | _AF[DB] | GEG | z z _A |[M:7/16] ce3/2c | %32
[M:3/8] BG[DF] |[M:1/4] E2 |] %34
V:2
 z z [E,B,] | [E,B,][E,B,][E,A,] | [E,B,][E,B,][C,C] | [F,CF][F,C][B,,B,] | [E,B,E][E,G,][E,B,E] | %5
 [E,CE][E,B,E][E,A,E] | [E,B,E][K:treble][G,E][G,DF] | [_A,CE][A,CE][F,=A,F] | [B,F]2 [B,_A] | %9
 [E,B,][E,B,][E,A,] | [E,B,][E,B,][C,C] | [F,CF][F,C][B,,B,] | [E,B,E][E,G,][E,B,E] | %13
 [_A,CE][A,CE][A,C] |[M:7/16] [_A,C_A][A,CA]3/2[=A,E^F] |[M:3/8] [B,EG][K:bass][B,E][B,,_A,] | %16
[M:1/4] [E,G,]2 |[M:1/8] [B,,B,] |[M:3/8] [B,,B,][B,,B,][B,,B,] | [B,,B,]2 [D,B,] | %20
 [F,B,F][F,B,F][F,A,E] | [B,,B,]2[K:treble] [B,D] | [B,D]D/E/ z/ C/ | [B,DF][B,F][B,DF] | %24
 [F,F][F,F][F,E] | [B,DF]2 [E,E] | [E,E][E,B,][E,A,] | [E,B,][E,B,][C,C] | [F,CF][F,C][B,,B,] | %29
 [E,B,E][E,G,][E,B,E] | [_A,CE][A,CE][A,C] |[M:7/16] [_A,C_A][A,CA]3/2[=A,E^F] | %32
[M:3/8] [B,EG][K:bass][B,E][B,,_A,] |[M:1/4] [E,G,]2 |] %34
V:3
 x3 | x3 | x3 | x3 | x3 | x3 | x3 | x3 | x3 | x3 | x3 | x3 | x3 | FF/G/ z/ B/ |[M:7/16] x7/2 | %15
[M:3/8] x3 |[M:1/4] x2 |[M:1/8] x |[M:3/8] x3 | x3 | x3 | x3 | x3 | x3 | x3 | x3 | x3 | x3 | x3 | %29
 x3 | FF/G/ z/ B/ |[M:7/16] x7/2 |[M:3/8] x3 |[M:1/4] x2 |] %34
V:4
 x3 | x3 | x3 | x3 | x3 | x3 | x[K:treble] x2 | x3 | x3 | x3 | x3 | x3 | x3 | x3 |[M:7/16] x7/2 | %15
[M:3/8] x[K:bass] x2 |[M:1/4] x2 |[M:1/8] x |[M:3/8] x3 | x3 | x3 | x2[K:treble] x | z B,[B,F] | %23
 x3 | x3 | x3 | x3 | x3 | x3 | x3 | x3 |[M:7/16] x7/2 |[M:3/8] x[K:bass] x2 |[M:1/4] x2 |] %34

